static/img/rebus-icon.svg

<svg width="50" height="50" viewBox="0 0 50 50" fill="none" xmlns="http://www.w3.org/2000/svg">
<g clip-path="url(#clip0_965_5467)">
<path fill-rule="evenodd" clip-rule="evenodd" d="M20.4067 40.6174C25.9878 46.1984 35.0364 46.1984 40.6174 40.6174C46.1984 35.0364 46.1984 25.9878 40.6174 20.4067C35.0364 14.8257 25.9878 14.8257 20.4067 20.4067C14.8257 25.9878 14.8257 35.0364 20.4067 40.6174ZM16.732 44.292C24.3426 51.9027 36.6817 51.9027 44.292 44.292C51.9027 36.6817 51.9027 24.3426 44.292 16.732C36.6817 9.12155 24.3426 9.12155 16.732 16.732C9.12155 24.3426 9.12155 36.6817 16.732 44.292Z" fill="url(#paint0_linear_965_5467)"/>
<path fill-rule="evenodd" clip-rule="evenodd" d="M9.38256 29.5933C14.9636 35.1743 24.0123 35.1743 29.5933 29.5933C35.1743 24.0123 35.1743 14.9636 29.5933 9.38256C24.0123 3.80153 14.9636 3.80153 9.38256 9.38256C3.80153 14.9636 3.80153 24.0123 9.38256 29.5933ZM5.70789 33.268C13.3184 40.8783 25.6575 40.8783 33.268 33.268C40.8783 25.6575 40.8783 13.3184 33.268 5.70789C25.6575 -1.90263 13.3184 -1.90263 5.70789 5.70789C-1.90263 13.3184 -1.90263 25.6575 5.70789 33.268Z" fill="url(#paint1_linear_965_5467)"/>
<path fill-rule="evenodd" clip-rule="evenodd" d="M16.5281 33.4718C21.1034 34.4354 26.0504 33.1363 29.5935 29.5932C33.1365 26.0501 34.4357 21.1031 33.4721 16.5278C28.8968 15.5641 23.9499 16.8634 20.4068 20.4065C16.8637 23.9496 15.5644 28.8965 16.5281 33.4718ZM12.3667 37.6331C9.62622 30.64 11.0814 22.3825 16.7321 16.7318C22.3828 11.0811 30.6403 9.62598 37.6334 12.3664C40.3741 19.3597 38.9187 27.6172 33.2681 33.2679C27.6174 38.9184 19.3599 40.3738 12.3667 37.6331Z" fill="url(#paint2_linear_965_5467)"/>
</g>
<defs>
<linearGradient id="paint0_linear_965_5467" x1="11.0242" y1="11.0242" x2="56.878" y2="22.4877" gradientUnits="userSpaceOnUse">
<stop stop-color="#5084E9"/>
<stop offset="1" stop-color="#6F50E9"/>
</linearGradient>
<linearGradient id="paint1_linear_965_5467" x1="-5.19908e-06" y1="-4.2037e-06" x2="45.854" y2="11.4635" gradientUnits="userSpaceOnUse">
<stop stop-color="#E95062"/>
<stop offset="1" stop-color="#E950D0"/>
</linearGradient>
<linearGradient id="paint2_linear_965_5467" x1="11.0242" y1="11.0239" x2="43.9087" y2="19.245" gradientUnits="userSpaceOnUse">
<stop stop-color="#5084E9"/>
<stop offset="1" stop-color="#E95062"/>
</linearGradient>
<clipPath id="clip0_965_5467">
<rect width="50" height="50" fill="white"/>
</clipPath>
</defs>
</svg>

<svg xmlns="http://www.w3.org/2000/svg" width="50" height="50" fill="none"><g fill-rule="evenodd" clip-path="url(#a)" clip-rule="evenodd"><path fill="url(#b)" d="M20.407 40.617c5.58 5.581 14.63 5.581 20.21 0 5.581-5.58 5.581-14.63 0-20.21-5.58-5.581-14.63-5.581-20.21 0-5.581 5.58-5.581 14.63 0 20.21m-3.675 3.675c7.61 7.61 19.95 7.61 27.56 0s7.61-19.95 0-27.56-19.95-7.61-27.56 0-7.61 19.95 0 27.56"/><path fill="url(#c)" d="M9.383 29.593c5.58 5.581 14.63 5.581 20.21 0 5.581-5.58 5.581-14.63 0-20.21-5.58-5.581-14.63-5.581-20.21 0-5.581 5.58-5.581 14.63 0 20.21m-3.675 3.675c7.61 7.61 19.95 7.61 27.56 0s7.61-19.95 0-27.56-19.95-7.61-27.56 0-7.61 19.95 0 27.56"/><path fill="url(#d)" d="M16.528 33.472a14.28 14.28 0 0 0 13.066-3.879 14.28 14.28 0 0 0 3.878-13.065 14.28 14.28 0 0 0-13.065 3.879 14.28 14.28 0 0 0-3.879 13.065m-4.161 4.161c-2.74-6.993-1.286-15.25 4.365-20.901s13.908-7.106 20.901-4.366c2.741 6.994 1.286 15.251-4.365 20.902-5.65 5.65-13.908 7.106-20.901 4.365"/></g><defs><linearGradient id="b" x1="11.024" x2="56.878" y1="11.024" y2="22.488" gradientUnits="userSpaceOnUse"><stop stop-color="#5084E9"/><stop offset="1" stop-color="#6F50E9"/></linearGradient><linearGradient id="c" x1="0" x2="45.854" y1="0" y2="11.463" gradientUnits="userSpaceOnUse"><stop stop-color="#E95062"/><stop offset="1" stop-color="#E950D0"/></linearGradient><linearGradient id="d" x1="11.024" x2="43.909" y1="11.024" y2="19.245" gradientUnits="userSpaceOnUse"><stop stop-color="#5084E9"/><stop offset="1" stop-color="#E95062"/></linearGradient><clipPath id="a"><path fill="#fff" d="M0 0h50v50H0z"/></clipPath></defs></svg>
